svg/material-icons/sports_rugby/materialiconstwotone/20px.svg

<svg xmlns="http://www.w3.org/2000/svg" width="20" height="20" viewBox="0 0 20 20"><path d="M14.45 5.55c-1.11.1-3.74.9-5.86 3.03-2.16 2.16-2.94 4.81-3.04 5.86 1.11-.1 3.73-.9 5.86-3.03 2.16-2.16 2.94-4.81 3.04-5.86z" opacity=".3"/><path d="M7.88 7.88c1.36-1.36 2.94-2.25 4.3-2.76-1.15.07-3.38.42-5.01 2.05-1.43 1.43-1.95 3.41-2.05 4.98.52-1.35 1.41-2.92 2.76-4.27zm4.24 4.24a12.246 12.246 0 0 1-4.3 2.76c1.15-.07 3.38-.43 5.01-2.06 1.43-1.43 1.95-3.41 2.05-4.98a12.38 12.38 0 0 1-2.76 4.28z" opacity=".3"/><path d="M15.3 4.7c-.35-.35-1.34-.6-2.6-.6-1.93 0-4.47.6-6.24 2.37-2.92 2.92-2.65 7.95-1.76 8.83.35.35 1.34.6 2.6.6 1.93 0 4.47-.6 6.24-2.37 2.92-2.92 2.65-7.95 1.76-8.83zm-9.75 9.75c.1-1.05.88-3.7 3.04-5.86 2.13-2.13 4.76-2.94 5.86-3.03-.1 1.05-.88 3.7-3.04 5.86-2.13 2.12-4.75 2.93-5.86 3.03zm1.62-7.28c1.63-1.63 3.86-1.98 5.01-2.06-1.36.52-2.94 1.4-4.3 2.76a12.38 12.38 0 0 0-2.76 4.28c.1-1.57.63-3.55 2.05-4.98zm5.66 5.66c-1.63 1.63-3.86 1.98-5.01 2.06 1.36-.52 2.94-1.4 4.3-2.76a12.38 12.38 0 0 0 2.76-4.28c-.1 1.57-.63 3.55-2.05 4.98z"/></svg>

<svg xmlns="http://www.w3.org/2000/svg" enable-background="new 0 0 20 20" height="20" viewBox="0 0 20 20" width="20"><g><rect fill="none" height="20" width="20"/></g><g><g><path d="M14.45,5.55c-1.11,0.1-3.74,0.9-5.86,3.03c-2.16,2.16-2.94,4.81-3.04,5.86c1.11-0.1,3.73-0.9,5.86-3.03 C13.57,9.25,14.35,6.6,14.45,5.55z" opacity=".3"/><path d="M7.88,7.88c1.36-1.36,2.94-2.25,4.3-2.76C11.03,5.19,8.8,5.54,7.17,7.17c-1.43,1.43-1.95,3.41-2.05,4.98 C5.64,10.8,6.53,9.23,7.88,7.88z" opacity=".3"/><path d="M12.12,12.12c-1.36,1.36-2.94,2.25-4.3,2.76c1.15-0.07,3.38-0.43,5.01-2.06c1.43-1.43,1.95-3.41,2.05-4.98 C14.36,9.2,13.47,10.77,12.12,12.12z" opacity=".3"/><path d="M15.3,4.7C15.3,4.7,15.3,4.7,15.3,4.7C15.3,4.7,15.3,4.7,15.3,4.7c-0.35-0.35-1.34-0.6-2.6-0.6 c-1.93,0-4.47,0.6-6.24,2.37C3.54,9.39,3.81,14.42,4.7,15.3c0.35,0.35,1.34,0.6,2.6,0.6c1.93,0,4.47-0.6,6.24-2.37 C16.46,10.61,16.19,5.58,15.3,4.7z M5.55,14.45c0.1-1.05,0.88-3.7,3.04-5.86c2.13-2.13,4.76-2.94,5.86-3.03 c-0.1,1.05-0.88,3.7-3.04,5.86C9.28,13.54,6.66,14.35,5.55,14.45z M7.17,7.17c1.63-1.63,3.86-1.98,5.01-2.06 c-1.36,0.52-2.94,1.4-4.3,2.76c-1.35,1.35-2.24,2.92-2.76,4.28C5.22,10.58,5.75,8.6,7.17,7.17z M12.83,12.83 c-1.63,1.63-3.86,1.98-5.01,2.06c1.36-0.52,2.94-1.4,4.3-2.76c1.35-1.35,2.24-2.92,2.76-4.28C14.78,9.42,14.25,11.4,12.83,12.83z"/></g></g></svg>
